X: 55
T:Fermoy Lasses, The
M:C|
L:1/8
S:John B. Walsh
R:reel
K:G
BA|:GE ~E2 BE ~E2|GE ~E2 BcBA|GE ~E2 BE ~E2|AFDF AcBA|!
GE ~E2 BE ~E2|GE ~E2 BcBA|~G3 F GBdB|AFDF AcBA:|!
G2 (3BAG dGBA|G2 Bd efg2|~G3B dGBG|AFDF AcBA|!
G2 (3BAG dGBA|G2 Bd efg2|afge dedB|AFDF AcBA:||
